X:0866
T:The Sisters.
M:C
L:1/8
Q:1/4=128
I: :: :|
Z:Jack Campin * www.campin.me.uk * 2009
K:D
d|(3(dBd) (3(dBd) Gg (3(gfe)|(3(dBd) (3(dBG) FA A2|(3(dBd) (3(dBG) Gg g2|(3(faf) (3(ege) d2D:|
f|   a2   (3(afd) gbbg      |   a2   (3(afd) ce e2|   a2   (3(afd) gb b2|(3(faf) (3(ege) d2D:|

